!!!!SEGMENT: pl-kk--kk-i-1--036_anonim--introitus-pro-festo-purificationis-b-m-v-suscepimus-deus.krn
!!!cenid: 15xx:749
!!!COM: Anonim
!!!COM-rismID: pe30004985
!!!CDT:
!!!CNT:
!!!OTL: Introitus pro festo Purificationis B.M.V./Suscepimus Deus
!!!PDT:
!!!AGN:
!!!SMS-siglum: PL-Kk
!!!SMS-shelfmark: Kk.I.1
!!!SMS-shelfwork: 036 W
!!!SMS-variant:
!!!SMS-altvar:
!!!NIFC-rismSourceID: 300257954
!!!NIFC-rismChildID: 300257990
!!!NIFC-islandoraID: pl-kk:1
!!!URL-pdf-islandora: https://repozytorium.nifc.pl/islandora/object/pl-kk%3A1/datastream/PDF/view
!!!URL-scan: https://polish.musicsources.pl/pl/lokalizacje/galeria/rekopisy/5736 @EN{Scan on Polish Music Sources Website} @PL{Skany w portalu Dziedzictwo Muzyki Polskiej w otwartym dostępie}
!!!IIIF: https://repozytorium.nifc.pl/islandora/object/pl-kk%3A1/datastream/IIIF/view
!!!ONB-nifc: UWAGA: Cantus (s. 129v-131r, skan 0132-0133), Altus (s. 124v-126r, skan 0318-0319), Tenor (s. 109v-110r, skan 500), Bassus (s. 117v-119r, skan 0680-0681).
!!!AIN: 3 empty 1 tenor
!!!key:
**kern	**text	**kern	**text	**text	**kern	**text	**kern	**text
*part4	*part4	*part3	*part3	*part3	*part2	*part2	*part1	*part1
*staff4	*staff4	*staff3	*staff3	*staff3	*staff2	*staff2	*staff1	*staff1
*Iempty	*	*Itenor	*	*	*Iempty	*	*Iempty	*
*I"BASSVS	*	*I"TENOR	*	*	*I"ALTVS	*	*I"CANTVS	*
*I'B	*	*I'T	*	*	*I'A	*	*I'C	*
*ICvox	*	*ICvox	*	*	*ICvox	*	*ICvox	*
*clefF4	*	*clefC4	*	*	*clefC4	*	*clefC2	*
*k[]	*	*k[]	*	*	*k[]	*	*k[]	*
*d:	*	*d:	*	*	*d:	*	*d:	*
*M2/1	*	*M2/1	*	*	*M2/1	*	*M2/1	*
*met(C)	*	*met(C)	*	*	*met(C)	*	*met(C)	*
=1-	=1-	=1-	=1-	=1-	=1-	=1-	=1-	=1-
*	*	*lig	*	*	*	*	*	*
*xywh-#680:1210,550,4378,945	*	*xywh-#500:1043,539,4479,968	*	*	*xywh-#318:1167,565,4514,944	*	*xywh-#132:1260,536,4435,945	*
!LO:TX:a:rj:t=Introitus\npro feſto \nPurificationis \nB. M. V.	!	!LO:TX:a:rj:t=Introitus\npro feſto \nPurific. B. M. \nV.	!	!	!LO:TX:a:rj:t=Introitus\npro feſto Pu&colon;\nrificationis \nB. M. V.	!	!LO:TX:a:rj:t=Introitus\npro feſto Puri&colon;\nficationis B.\nM. V.	!
1C/	Su-	1C/	Su-	Ro-	1G/	Su-	2.c/	Suſ-
.	.	.	.	.	.	.	4B/	.
2.F\	-ſce-	1D/	.	.	2F/	-ſce-	2A/	.
.	.	.	.	.	2D/	-pi-	2.d/	-ce-
4G\	.	.	.	.	.	.	.	.
*	*	*Xlig	*	*	*	*	*	*
=2-	=2-	=2-	=2-	=2-	=2-	=2-	=2-	=2-
*	*	*lig	*	*	*	*	*	*
4A\	.	1D/	-ſce-	-ra-	1d\	-mus	.	.
4G\	.	.	.	.	.	.	4e/	.
4A\	.	.	.	.	.	.	1f\	.
4B\	.	.	.	.	.	.	.	.
2.c\	.	1A\	.	.	2r	.	.	.
.	.	.	.	.	2.A/	De-	4e/	.
4B\	.	.	.	.	.	.	4d/	.
*	*	*Xlig	*	*	*	*	*	*
=3-	=3-	=3-	=3-	=3-	=3-	=3-	=3-	=3-
2.A\	.	1c\	.	.	.	.	2e/	.
.	.	.	.	.	4B/	.	.	.
.	.	.	.	.	2.c\	.	2e/	-pi-
*custos:F	*	*	*	*	*	*	*	*
4G\	.	.	.	.	.	.	.	.
*xywh-#680:1411,1391,4225,813	*	*	*	*	*	*	*	*
!LO:LB:g=original	!	!	!	!	!	!	!	!
2.F\	.	1A\	-pi-	.	.	.	2f/	-mus
.	.	.	.	.	4B/	.	.	.
.	.	.	.	.	4A/	.	2c/	De-
4E/	.	.	.	.	4G/	.	.	.
=4-	=4-	=4-	=4-	=4-	=4-	=4-	=4-	=4-
*	*	*	*	*	*	*	*custos:f	*
4D/	.	1A\	-mus	-te	4F/	.	2d/	.
4C/	.	.	.	.	4E/	.	.	.
*	*	*	*	*	*	*	*xywh-#132:1510,1377,4247,827	*
!	!	!	!	!	!	!	!LO:LB:g=original	!
1D\	.	.	.	.	4D/	.	1f\	.
.	.	.	.	.	4E/	.	.	.
*	*	*lig	*	*	*	*	*	*
.	.	1A\	De-	C(ae)-	4F/	.	.	.
*	*	*	*	*	*custos:A	*	*	*
.	.	.	.	.	4G/	.	.	.
*	*	*	*	*	*xywh-#318:1406,1440,4175,787	*	*	*
!	!	!	!	!	!LO:LB:g=original	!	!	!
2C/	.	.	.	.	2.A/	.	2e/	.
=5-	=5-	=5-	=5-	=5-	=5-	=5-	=5-	=5-
1BB/	.	1B\	.	.	.	.	2.d/	.
.	.	.	.	.	4G/	.	.	.
.	.	.	.	.	2G/	.	.	.
.	.	.	.	.	.	.	4e/	.
*	*	*Xlig	*	*	*	*	*	*
*	*	*lig	*	*	*	*	*	*
2AA/	-pi-	1c\	.	.	2A/	-us	2f/	.
2C/	-mus	.	.	.	2e\	De-	2e/	.
=6-	=6-	=6-	=6-	=6-	=6-	=6-	=6-	=6-
2D/	De-	1A\	.	.	2d\	.	2f\	.
2E/	.	.	.	.	2c\	.	1g\	.
*	*	*Xlig	*	*	*	*	*	*
*	*	*lig	*	*	*	*	*	*
1D\	.	1A\	-us	-li	1d\	.	.	.
.	.	.	.	.	.	.	2f\	.
=7-	=7-	=7-	=7-	=7-	=7-	=7-	=7-	=7-
2GG/	-us	1G/	.	.	2B/	-us	1g\	-us
2C/	mi-	.	.	.	1c\	.	.	.
*	*	*Xlig	*	*	*	*	*	*
*	*	*lig	*	*	*	*	*	*
2AA/	-ſe-	1A\	mi-	.	.	.	2r	.
2AA/	-ri-	.	.	.	2A/	mi-	2f/	mi-
=8-	=8-	=8-	=8-	=8-	=8-	=8-	=8-	=8-
2D/	-cor-	1F/	.	.	2A/	-ſe-	2d/	-ſe-
2D/	-di-	.	.	.	2d\	-ri-	2d/	-ri-
*	*	*Xlig	*	*	*	*	*	*
2GG/	-a(m)	1G/	-ſe-	.	2d\	-cor-	2g\	-cor-
*custos:F	*	*	*	*	*	*	*	*
2G\	tu-	.	.	.	2G/	-di-	2g\	-di-
!LO:LB:g=original	!	!	!	!	!	!	!	!
=9-	=9-	=9-	=9-	=9-	=9-	=9-	=9-	=9-
*	*	*custos:A	*	*	*	*	*	*
*xywh-#680:1404,2127,4274,618	*	*	*	*	*	*	*	*
2.F\	.	1A\	-ri-	.	4c\	-a(m)	2c/	-a(m)
.	.	.	.	.	4B\	tu-	.	.
.	.	.	.	.	4A/	.	1f\	tu-
4E/	.	.	.	.	4G/	.	.	.
!	!	!LO:LB:g=original	!	!	!	!	!	!
*	*	*lig	*	*	*	*	*	*
*	*	*xywh-#500:1319,1387,4243,870	*	*	*	*	*	*
2D/	.	1A\	-cor-	de-	2.F/	.	.	.
4C/	.	.	.	.	.	.	4e/	.
*	*	*	*	*	*custos:A	*	*	*
4BB/	.	.	.	.	4G/	.	4d/	.
!	!	!	!	!	!LO:LB:g=original	!	!	!
=10-	=10-	=10-	=10-	=10-	=10-	=10-	=10-	=10-
*	*	*	*	*	*xywh-#318:1423,2169,4164,764	*	*	*
2.AA/	.	1c\	.	.	2A/	.	4c/	.
*	*	*	*	*	*	*	*custos:e	*
.	.	.	.	.	.	.	4d/	.
*	*	*	*	*	*	*	*xywh-#132:1503,2107,4185,855	*
!	!	!	!	!	!	!	!LO:LB:g=original	!
.	.	.	.	.	4G/	.	2.e/	.
4BB/	.	.	.	.	4F/	.	.	.
*	*	*Xlig	*	*	*	*	*	*
2C/	.	[1G/	-di-	.	2E/	.	.	.
.	.	.	.	.	.	.	4d/	.
2D/	.	.	.	.	2F/	.	1d/	.
=11-	=11-	=11-	=11-	=11-	=11-	=11-	=11-	=11-
*	*	*lig	*	*	*	*	*	*
1E\	.	1G/]	-am	.	1G/	.	.	.
.	.	.	.	.	.	.	2c/	.
2D/	.	1F/	.	.	1A\	.	2d/	-am
1D\	.	.	.	.	.	.	1f\	.
*	*	*Xlig	*	*	*	*	*	*
=12-	=12-	=12-	=12-	=12-	=12-	=12-	=12-	=12-
.	.	[<1A\	.	.	2D/	.	.	.
2C/	.	.	.	.	2E/	.	2e/	tu-
*	*	*lig	*	*	*	*	*	*
1D\	.	1A\]	tu-	.	2.F/	.	2.d/	.
.	.	.	.	.	4G/	.	4e/	.
=13-	=13-	=13-	=13-	=13-	=13-	=13-	=13-	=13-
2.AA/	.	1c\	.	.	2A/	.	2f/	.
.	.	.	.	.	4G/	.	2e/	.
4BB/	.	.	.	.	4F/	.	.	.
*	*	*Xlig	*	*	*	*	*	*
2C/	.	1A\	-am	.	2E/	.	2c/	.
2D/	.	.	.	.	2D/	.	2f/	.
=14-	=14-	=14-	=14-	=14-	=14-	=14-	=14-	=14-
2C/	.	1A\	.	-ſu-	2E/	.	2e/	.
*custos:AA	*	*	*	*	*	*	*	*
2D/	.	.	.	.	2F/	.	1d/	.
*xywh-#680:1488,2892,4149,764	*	*	*	*	*	*	*	*
!LO:LB:g=original	!	!	!	!	!	!	!	!
1AA/	-am	1A\,	in	-per	1E/	.	.	.
.	.	.	.	.	.	.	2c/	-am
=15-	=15-	=15-	=15-	=15-	=15-	=15-	=15-	=15-
*	*	*lig	*	*	*	*	*	*
*	*	*	*	*	*custos:A	*	*	*
2r	.	1F/	.	et	2D/	-am	2d/	.
*	*	*	*	*	*xywh-#318:1458,2878,4129,804	*	*	*
!	!	!	!	!	!LO:LB:g=original	!	!	!
2D/	in	.	.	.	2A,/	in	2f,\	.
2C/	.	1G/	.	.	4c\	me-	2e\	in
.	.	.	.	.	4A\	.	.	.
2E\	me-	.	.	.	4B\	.	1g\	me-
.	.	.	.	.	4c\	.	.	.
*	*	*Xlig	*	*	*	*	*	*
=16-	=16-	=16-	=16-	=16-	=16-	=16-	=16-	=16-
1D\	.	1A\	me-	.	2d\	.	.	.
*	*	*	*	*	*	*	*custos:g	*
.	.	.	.	.	2d\	.	2f\	-di-
*	*	*	*	*	*	*	*xywh-#132:1510,2876,4157,834	*
!	!	!	!	!	!	!	!LO:LB:g=original	!
2GG/	-di-	1G/	-di-	.	2B\	-di-	2.g\	-o
1C/	-o	.	.	.	1c\	-o	.	.
.	.	.	.	.	.	.	4f\	.
=17-	=17-	=17-	=17-	=17-	=17-	=17-	=17-	=17-
.	.	1G/	-o	nu-	.	.	2e/	.
2BB/	tem-	.	.	.	2d\	tem-	2d/	.
2AA/	-pli	1A\	tem-	.	2e\	.	2c/	.
4FF/	tu-	.	.	.	2A/	-pli	1f\	tem-
4GG/	.	.	.	.	.	.	.	.
=18-	=18-	=18-	=18-	=18-	=18-	=18-	=18-	=18-
*	*	*lig	*	*	*	*	*	*
4AA/	.	1c\	-pli	.	1A\	tu-	.	.
4BB/	.	.	.	.	.	.	.	.
2C/	.	.	.	.	.	.	2e/	.
*	*	*custos:c	*	*	*	*	*	*
2D/	.	1A\	.	.	2.F/	-i	2d,/	.
2.F\	.	.	.	.	.	.	2.c/	-pli-
*	*	*	*	*	*	*ij	*	*
.	.	.	.	.	4G/	tem-	.	.
*	*	*Xlig	*	*	*	*	*	*
!	!	!LO:LB:g=original	!	!	!	!	!	!
=19-	=19-	=19-	=19-	=19-	=19-	=19-	=19-	=19-
*	*	*lig	*	*	*	*	*	*
*	*	*xywh-#500:1354,2084,4196,910	*	*	*	*	*	*
.	.	1c\	.	.	4A/	.	.	.
*custos:C	*	*	*	*	*	*	*	*
4E\	.	.	.	.	4B/	.	4d/	-tu-
*xywh-#680:5906,656,4316,834	*	*	*	*	*	*	*	*
!LO:PB:g=original	!	!	!	!	!	!	!	!
4C/	.	.	.	.	2.c\	.	4e/	.
4D/	.	.	.	.	.	.	4f\	.
4E\	.	1G/	.	.	.	.	2g\	.
4F\	.	.	.	.	4B\	-pli	.	.
*	*	*	*	*	*custos:A	*	*	*
2G\	.	.	.	.	2G/	tu	2d/	.
*	*	*Xlig	*	*	*	*	*	*
!	!	!	!	!	!LO:PB:g=original	!	!	!
=20-	=20-	=20-	=20-	=20-	=20-	=20-	=20-	=20-
*	*	*	*	*	*xywh-#318:5951,663,4181,804	*	*	*
4D/	.	[1F/	.	-bes	1A\	i	2.f\	.
*	*	*	*	*	*	*Xij	*	*
4E/	.	.	.	.	.	.	.	.
4F\	.	.	.	.	.	.	.	.
4G\	.	.	.	.	.	.	4e/	.
*	*	*lig	*	*	*	*	*	*
2.A\	.	1F/]	tu-	.	0r	.	2c/	.
.	.	.	.	.	.	.	1d/	.
8G\L	.	.	.	.	.	.	.	.
8F\J	.	.	.	.	.	.	.	.
=21-	=21-	=21-	=21-	=21-	=21-	=21-	=21-	=21-
1E\	.	1G/,	.	.	.	.	.	.
.	.	.	.	.	.	.	2c/	.
*	*	*Xlig	*	*	*	*	*	*
1D\	-i	0F/	-i	.	1A\	ſe-	2d/	-i
*	*	*	*	*	*	*	*custos:d	*
.	.	.	.	.	.	.	2d/	ſe-
!	!	!	!	!	!	!	!LO:PB:g=original	!
=22-	=22-	=22-	=22-	=22-	=22-	=22-	=22-	=22-
*	*	*	*	*	*	*	*xywh-#132:6135,696,4213,841	*
1D\	ſe-	.	.	.	1.A\	-cun-	2d/	-cun-
.	.	.	.	.	.	.	2d/	-du(m)
!LO:TX:t=P:problem=pod nutą "slashe", ale czemu?... 	!	!	!	!	!	!	!	!
2D/	-cun-	1F/	ſe-	plu-	.	.	1f\	.
!	!	!	!	!	!LO:TX:t=P:problem=pod nutą cztery "slashe", ale czemu?... 	!	!	!
2D/	-du(m)	.	.	.	1A\	-dum	.	.
=23-	=23-	=23-	=23-	=23-	=23-	=23-	=23-	=23-
1F\	no-	1A\	-cun-	.	.	.	2c/	no-
.	.	.	.	.	1c\	.	2f/	-me(n)
2C/	-me(n)	[<1c\	-du(m)	.	.	.	2e/	.
*custos:AA	*	*	*	*	*	*	*	*
*	*ij	*	*	*	*	*	*	*
2C/	tu-	.	.	.	2G/	no-	4e/	no-
.	.	.	.	.	.	.	4d/	-me(n)
!LO:LB:g=original	!	!	!	!	!	!	!	!
=24-	=24-	=24-	=24-	=24-	=24-	=24-	=24-	=24-
*	*	*lig	*	*	*	*	*	*
*xywh-#680:5899,1442,4336,771	*	*	*	*	*	*	*	*
2AA/	.	1c\]	.	.	2A/	.	4c/	.
.	.	.	.	.	.	.	4B/	tu-
1C/	-um	.	.	.	1E/	-me(n)	2A/	.
*	*Xij	*	*	*	*	*	*	*
.	.	1e\	.	.	.	.	2G/	.
4BB/	tu-	.	.	.	4D/	tu-	1A/	.
4AA/	.	.	.	.	4C/	.	.	.
*	*	*Xlig	*	*	*	*	*	*
=25-	=25-	=25-	=25-	=25-	=25-	=25-	=25-	=25-
1BB/	-um	1d\	no-	.	1D/	.	.	.
.	.	.	.	.	.	.	2G/	.
1AA/	.	[<1c\	-men	-ant	2E,/	-um	2A/	.
.	.	.	.	.	2.F/	De-	2.A/	-um
=26-	=26-	=26-	=26-	=26-	=26-	=26-	=26-	=26-
1.A\	De-	1c\]	tu-	.	.	.	.	.
.	.	.	.	.	4G/	.	4B/	De-
.	.	.	.	.	4A/	.	4c/	.
*	*	*	*	*	*custos:c	*	*	*
.	.	.	.	.	4B\	.	4d/	.
*	*	*	*	*	*xywh-#318:5981,1439,4170,793	*	*	*
!	!	!	!	!	!LO:LB:g=original	!	!	!
.	.	[<1c\	-u(m)	iu-	2c\	.	2e/	.
*	*	*	*	*	*	*	*custos:g	*
4G\	.	.	.	.	4B\	.	2f\	.
4F\	.	.	.	.	4A\	.	.	.
!	!	!	!	!	!	!	!LO:LB:g=original	!
=27-	=27-	=27-	=27-	=27-	=27-	=27-	=27-	=27-
*	*	*lig	*	*	*	*	*	*
*	*	*	*	*	*	*	*xywh-#132:6156,1488,4206,771	*
1E\	.	1c\]	De-	.	1G/	.	1g\	.
2D/	-us	1d\	.	.	2A/	-us	2f\	.
1D\	i-	.	.	.	1F/	i-	1d/	-us
*	*	*Xlig	*	*	*	*	*	*
=28-	=28-	=28-	=28-	=28-	=28-	=28-	=28-	=28-
*	*	*custos:A	*	*	*	*	*	*
.	.	1A\	.	-ſtu(m)	.	.	.	.
!	!	!	!	!	!	!	!LO:TX:t=P:problem=kreska pseudotaktowa	!
2C/	-ta	.	.	.	2E/	-ta	2e/	i-
*	*	*xywh-#500:1354,2820,4225,1072	*	*	*	*	*	*
!	!	!LO:LB:g=original	!	!	!	!	!	!
1D\	et	1A\	-us	a-	4D/	et	1f\	-ta
.	.	.	.	.	4E/	.	.	.
.	.	.	.	.	4F/	.	.	.
.	.	.	.	.	4G/	.	.	.
=29-	=29-	=29-	=29-	=29-	=29-	=29-	=29-	=29-
2AA/	laus	1c\	i-	-pe-	2A/	.	2e/	et
1C/	.	.	.	.	4G/	.	4c/	laus
.	.	.	.	.	4F/	.	4d/	.
*	*	*lig	*	*	*	*	*	*
.	.	1c\	-ta	.	2.E/	.	4e/	.
.	.	.	.	.	.	.	4f\	.
4BB/	.	.	.	.	.	.	1g\	.
4AA/	tu-	.	.	.	4F/	laus	.	.
=30-	=30-	=30-	=30-	=30-	=30-	=30-	=30-	=30-
4GG/	.	1d\	.	.	1G/	.	.	.
4AA/	.	.	.	.	.	.	.	.
4BB/	.	.	.	.	.	.	4f\	.
*custos:D	*	*	*	*	*	*	*	*
4C/	.	.	.	.	.	.	4e\	.
!LO:LB:g=original	!	!	!	!	!	!	!	!
*	*	*Xlig	*	*	*	*	*	*
*xywh-#680:5933,2158,4253,792	*	*	*	*	*	*	*	*
2D/	.	1A\	.	.	2r	.	2d/	.
2C/	.	.	.	.	2c\	et	2e/	.
=31-	=31-	=31-	=31-	=31-	=31-	=31-	=31-	=31-
*	*	*	*	*	*custos:c	*	*	*
2D/	.	1A\	et	-ri-	2A/	laus	2f\	.
*	*	*	*	*	*xywh-#318:5963,2179,4158,740	*	*	*
!	!	!	!	!	!LO:LB:g=original	!	!	!
2E\	.	.	.	.	1c\	tu-	1e\	.
*	*	*lig	*	*	*	*	*	*
1F\	.	1A\	laus	-a-	.	.	.	.
.	.	.	.	.	4B\	.	2d/	tu-
.	.	.	.	.	4A\	.	.	.
=32-	=32-	=32-	=32-	=32-	=32-	=32-	=32-	=32-
1E\	.	1G/	.	.	2B\	.	0e\	-a
.	.	.	.	.	2.c\	.	.	.
*	*	*Xlig	*	*	*	*	*	*
1AA/	-a	1A\	.	.	.	.	.	.
.	.	.	.	.	4B\	.	.	.
.	.	.	.	.	4A/	.	.	.
.	.	.	.	.	4G/	.	.	.
=33-	=33-	=33-	=33-	=33-	=33-	=33-	=33-	=33-
*	*	*lig	*	*	*	*	*	*
2.A\	et	1c\	tu-	.	4A/	.	2r	.
.	.	.	.	.	4B\	.	.	.
.	.	.	.	.	2.c\	.	1e\	i-
4G\	.	.	.	.	.	.	.	.
1F\	.	1A\	.	.	.	.	.	.
.	.	.	.	.	4B\	.	.	.
.	.	.	.	.	1A\	.	2d/	-ta
*	*	*Xlig	*	*	*	*	*	*
=34-	=34-	=34-	=34-	=34-	=34-	=34-	=34-	=34-
*	*	*lig	*	*	*	*	*	*
*	*	*	*	*	*	*	*custos:e	*
1E\	.	1B\	.	.	.	.	1e\	et
.	.	.	.	.	2G/	.	.	.
*	*	*	*	*	*	*	*xywh-#132:6121,2197,4199,799	*
!	!	!	!	!	!	!	!LO:LB:g=original	!
2AA/	laus	1c\	.	.	4A/	.	2e/	laus
.	.	.	.	.	4B\	.	.	.
1A\	.	.	.	.	4c\	.	4c/	.
.	.	.	.	.	4A/	.	4d/	.
*	*	*Xlig	*	*	*	*	*	*
=35-	=35-	=35-	=35-	=35-	=35-	=35-	=35-	=35-
*	*	*lig	*	*	*	*	*	*
.	.	1B\	.	.	4B\	.	4e/	tu-
.	.	.	.	.	4c\	.	4f/	.
*	*	*	*	*	*custos:c	*	*	*
2G\	tu-	.	.	.	1d\	.	2g\	.
!	!	!	!	!	!	!	!LO:TX:t=P:problem=kreska pseudotaktowa	!
1A\	-a	1A\	.	.	.	.	1e\	.
*	*	*	*	*	*xywh-#318:5978,2946,4158,769	*	*	*
!	!	!	!	!	!LO:LB:g=original	!	!	!
.	.	.	.	.	2c\	-a	.	.
*	*	*Xlig	*	*	*	*	*	*
=36-	=36-	=36-	=36-	=36-	=36-	=36-	=36-	=36-
2D/	.	1A\	-a	-tur	2d\	.	2d/	.
2F\	in	.	.	.	2A/	in	2c/	.
*lig	*	*	*	*	*	*	*	*
1C/	fi-	1c\	in	ter-	2G/	fi-	1e\	.
*	*	*	*	*	*lig	*	*	*
.	.	.	.	.	1A\	.	.	.
=37-	=37-	=37-	=37-	=37-	=37-	=37-	=37-	=37-
*	*	*lig	*	*	*	*	*	*
1D\	.	1F/	fi-	.	.	.	1d/	-a
.	.	.	.	.	1B\	.	.	.
*Xlig	*	*	*	*	*Xlig	*	*	*
*lig	*	*	*	*	*	*	*	*
1E\	.	1G/	.	.	.	.	1r	.
.	.	.	.	.	1c\	.	.	.
*	*	*Xlig	*	*	*	*	*	*
=38-	=38-	=38-	=38-	=38-	=38-	=38-	=38-	=38-
*custos:E	*	*custos:c	*	*	*	*	*	*
1F\	.	1A\	.	.	.	.	2r	.
.	.	.	.	.	4B/	.	2d/	in
.	.	.	.	.	4A/	.	.	.
!LO:LB:g=original	!	!LO:PB:g=original	!	!	!	!	!	!
*Xlig	*	*lig	*	*	*lig	*	*	*
*xywh-#680:5926,2902,4281,806	*	*xywh-#500:6054,581,4277,980	*	*	*	*	*	*
2E/	.	1c\	-nes	.	1G/	.	2e/	.
2C/	-nes	.	.	.	.	.	2g\	fi-
=39-	=39-	=39-	=39-	=39-	=39-	=39-	=39-	=39-
1D\	ter-	1A\	.	.	1d\	.	2.f\	-nes
.	.	.	.	.	.	.	8e/L	ter-
.	.	.	.	.	.	.	8d/J	.
*	*	*Xlig	*	*	*Xlig	*	*	*
*	*	*lig	*	*	*	*	*	*
1AA/	-re	1c\	.	.	2c\	-nes	2.e/	.
.	.	.	.	.	2e\	.	.	.
*	*	*	*	*	*	*	*custos:g	*
.	.	.	.	.	.	.	4f\	.
!	!	!	!	!	!	!	!LO:LB:g=original	!
=40-	=40-	=40-	=40-	=40-	=40-	=40-	=40-	=40-
*	*	*	*	*	*	*	*xywh-#132:6121,2941,4227,862	*
2r	.	1G/	.	.	2d\	ter-	2.g\	.
2C/	ter-	.	.	.	1c\	.	.	.
.	.	.	.	.	.	.	8f/L	.
.	.	.	.	.	.	.	8e/J	.
*	*	*Xlig	*	*	*	*	*	*
*	*	*lig	*	*	*	*	*	*
1D\	-re	1F/	ter-	.	.	.	4d/	.
.	.	.	.	.	.	.	4c/	.
.	.	.	.	.	2B\	.	1f\	.
=41-	=41-	=41-	=41-	=41-	=41-	=41-	=41-	=41-
1C/	.	1G/	.	.	0c\	-re	.	.
.	.	.	.	.	.	.	2e/	-re
*	*	*Xlig	*	*	*	*	*	*
1r	.	1F/	-re	.	.	.	0f\	.
=42-	=42-	=42-	=42-	=42-	=42-	=42-	=42-	=42-
1D\	iu-	1F/	.	-ra	0A\	.	.	.
2.F\	-ſti-	1D/	iu-	et	.	.	2r	.
.	.	.	.	.	.	.	1d/	iu-
4E\	-ci-	.	.	.	.	.	.	.
=43-	=43-	=43-	=43-	=43-	=43-	=43-	=43-	=43-
*	*	*lig	*	*	*	*	*	*
2D/	-a	1F/	-ſti-	ger-	1A\	.	.	.
2D/	.	.	.	.	.	.	1f\	-ſti-
1C/	.	1G/	.	.	2.c\	iu-	.	.
.	.	.	.	.	.	.	2e/	-ci-
*	*	*	*	*	*custos:A	*	*	*
.	.	.	.	.	4B\	-ſti	.	.
*	*	*Xlig	*	*	*	*	*	*
!	!	!	!	!	!LO:PB:g=original	!	!	!
=44-	=44-	=44-	=44-	=44-	=44-	=44-	=44-	=44-
*	*	*	*	*	*xywh-#319:1428,633,4216,863	*	*	*
2.F\	ple-	1F/	-ti-	-mi-	2A/	.	2d/	-a
.	.	.	.	.	2A/	ti-	2c/	.
4E\	.	.	.	.	.	.	.	.
2.D/	.	0F/	-a	-net	1A\	-a	2.f/	ple-
4C/	.	.	.	.	.	.	4e/	.
=45-	=45-	=45-	=45-	=45-	=45-	=45-	=45-	=45-
*custos:AA	*	*	*	*	*	*	*	*
*	*	*lig	*	*	*	*	*	*
2BB-X/	.	.	ple-	/ger-	2D/	.	2d/	.
*xywh-#681:1365,688,4230,825	*	*	*	*	*	*	*	*
!LO:PB:g=original	!	!	!	!	!	!	!	!
!LO:TX:t=P:problem=od tej nuty przez dwa systemy bemol przy kluczu	!	!	!	!	!	!	!	!
2AA/	.	.	.	.	1F/	ple-	2c/	.
1GG/	-na	1G/	.	.	.	.	1B-X/	-na
.	.	.	.	.	2E/	-na	.	.
*	*	*Xlig	*	*	*	*	*	*
=46-	=46-	=46-	=46-	=46-	=46-	=46-	=46-	=46-
*	*	*lig	*	*ij	*	*	*	*
2FF/	eſt	1A\	.	-mi-	1F/	eſt	2A/	eſt
*	*	*	*	*	*	*	*custos:d	*
2F\	.	.	.	.	.	.	2c/	ple-
!	!	!	!	!	!	!	!LO:PB:g=original	!
*	*	*	*	*	*	*	*lig	*
*	*	*	*	*	*	*	*xywh-#133:1482,702,4119,793	*
!	!	!	!	!	!	!	!LO:TX:t=P:problem=od tej nuty przez dwa systemy bemol przy kluczu	!
2D/	.	1B-X\	.	.	2r	.	1d/	-na
*	*	*	*	*	*	*ij	*	*
2BB-X/	.	.	.	.	1F/	ple-	.	.
*	*	*Xlig	*	*	*	*	*	*
=47-	=47-	=47-	=47-	=47-	=47-	=47-	=47-	=47-
*	*	*lig	*	*	*	*	*	*
1C/	.	1G/	-na	-net	.	.	1c/	.
.	.	.	.	.	2E/	.	.	.
*	*	*	*	*Xij	*	*	*Xlig	*
2FF/	.	1F/	.	.	2A/	-na	2c/	eſt
1BB-X/	.	.	.	.	1d\	eſt	1B-X/	dex-
*	*	*Xlig	*	*	*	*Xij	*	*
=48-	=48-	=48-	=48-	=48-	=48-	=48-	=48-	=48-
.	.	[1F/	eſt	ſal-	.	.	.	.
2AA/	dex-	.	.	.	2c\	dex-	2c/	.
2BB-X/	-te-	1F/]	dex-	.	2B-X/	-te-	2d/	-te-
2C/	-ra	.	.	.	1A\	-ra	1c/	-ra
=49-	=49-	=49-	=49-	=49-	=49-	=49-	=49-	=49-
*	*	*custos:G	*	*	*	*	*	*
1D\	tu-	1F/	-te-	-ua-	.	.	.	.
.	.	.	.	.	4G/	tu-	2B-X/	tu-
.	.	.	.	.	4F/	.	.	.
!	!	!LO:LB:g=original	!	!	!	!	!	!
*	*	*lig	*	*	*	*	*	*
*	*	*xywh-#500:6020,1365,4306,864	*	*	*	*	*	*
4C/	.	1G/	-ra	.	4E/	.	1c/	-a
4D/	.	.	.	.	4F/	.	.	.
4E\	.	.	.	.	4G/	.	.	.
*	*	*	*	*	*custos:B-	*	*	*
4F\	.	.	.	.	4A/	.	.	.
!	!	!	!	!	!LO:LB:g=original	!	!	!
=50-	=50-	=50-	=50-	=50-	=50-	=50-	=50-	=50-
*	*	*	*	*	*xywh-#319:1446,1415,4175,775	*	*	*
!	!	!	!	!	!LO:N:acc=#	!	!	!
!	!	!	!	!	!LO:TX:t=P:problem=# below	!	!	!
2G\	-a	1E/	.	.	2Bn/	.	2r	.
*	*ij	*	*	*	*	*	*	*ij
2C/	dex-	.	.	.	2c\	-a	2g\	ple-
*	*	*Xlig	*	*	*	*	*	*
*custos:BB-	*	*	*	*	*	*	*	*
*	*	*lig	*	*	*	*	*	*
2D/	.	1F/	.	.	2A\	.	2f/	-na
*	*	*	*	*	*	*ij	*	*
*xywh-#681:1365,1457,4167,762	*	*	*	*	*	*	*	*
!LO:LB:g=original	!	!	!	!	!	!	!	!
4BB-X/	.	.	.	.	1B-X\	dex-	2d/	eſt
4C/	.	.	.	.	.	.	.	.
=51-	=51-	=51-	=51-	=51-	=51-	=51-	=51-	=51-
4D/	.	1D/	.	.	.	.	2.f/	dex-
4E\	.	.	.	.	.	.	.	.
2F\	.	.	.	.	2A\	.	.	.
.	.	.	.	.	.	.	4e/	.
*	*	*Xlig	*	*	*	*	*	*
*	*	*lig	*	*	*	*	*	*
2BB-X/	-te-	1D/	tu-	-to-	4B-\	-te-	1d/	-te-
.	.	.	.	.	4G/	.	.	.
2D/	.	.	.	.	4A/	.	.	.
.	.	.	.	.	4B-\	.	.	.
=52-	=52-	=52-	=52-	=52-	=52-	=52-	=52-	=52-
2AA/	.	1E/	.	.	1c\	.	2c/	-ra
2C/	-ra	.	.	.	.	.	2g\	tu-
*	*	*Xlig	*	*	*	*	*	*
1D\	tu-	1F/	.	.	2A/	.	2f\	.
.	.	.	.	.	2A/	-ra	4e/	.
*	*	*	*	*	*	*	*custos:c	*
.	.	.	.	.	.	.	4d/	.
!	!	!	!	!	!	!	!LO:LB:g=original	!
=53-	=53-	=53-	=53-	=53-	=53-	=53-	=53-	=53-
*	*	*lig	*	*	*	*	*	*
*	*	*	*	*	*	*	*xywh-#133:1471,1455,4182,874	*
0AA/	.	0E/	-a	-rem	0A\	tu-	2c/	.
.	.	.	.	.	.	.	1d/	.
.	.	.	.	.	.	.	2c/	.
=54-	=54-	=54-	=54-	=54-	=54-	=54-	=54-	=54-
1D\	-a	00.D/;l	.	.	1A\	-a	1d/	-a
*	*Xij	*	*	*	*	*Xij	*	*Xij
2r	.	.	.	.	2r	.	2r	.
2GG/	tu-	.	.	.	2G/	.	2B-X/	dex-
*	*	*Xlig	*	*	*	*	*	*
=55-	=55-	=55-	=55-	=55-	=55-	=55-	=55-	=55-
2GG/	.	.	.	.	2Bny/	tu-	2G/	-te-
2FF/	.	.	.	.	2A/	.	2A/	-ra
1GG/	.	.	.	.	1G/	-a:	1B-X/	tu-
=56-	=56-	=56-	=56-	=56-	=56-	=56-	=56-	=56-
*	*	*	*	*	*custos:c	*	*	*
*custos:F	*	*	*	*	*	*	*	*
!	!	!	!	!	!LO:N:acc=#	!	!	!
!	!	!	!	!	!LO:TX:t=P:problem=# above	!	!	!
0D\;l	-a	.	.	.	0F#X/;<	.	0A/l	-a
!LO:LB:g=original	!	!	!	!	!LO:LB:g=original	!	!	!
=57-	=57-	=57-	=57-	=57-	=57-	=57-	=57-	=57-
*xywh-#681:1407,2192,4167,880	*	*	*	*	*xywh-#319:1481,2150,4187,892	*	*	*
1F\	Ma-	1F/	Ma-	.	1c\	Ma-	1f\	Ma-
*lig	*	*lig	*	*	*lig	*	*lig	*
1C/	-gnus	1G/	-gnus	.	1c\	-gnus	1e\	-gnus
=58-	=58-	=58-	=58-	=58-	=58-	=58-	=58-	=58-
1F\	.	1A\	.	.	1A\	.	1c/	.
*Xlig	*	*Xlig	*	*	*Xlig	*	*Xlig	*
1.D\	do-	1A\	do-	.	2.d\	do-	1.f\	do-
.	.	.	.	.	4d\	-mi-	.	.
=59-	=59-	=59-	=59-	=59-	=59-	=59-	=59-	=59-
.	.	1A\	-mi-	.	2d\	-(nus)	.	.
2D/	-mi-	.	.	.	2d\	et	2f/	-mi-
*	*	*	*	*	*	*	*custos:f	*
!	!	!LO:TX:t=P:problem=pod nutą dwie minimy sugerujące rozbicie nuty na dwa, ze względu na dopisany drugi tekst, którego zresztą w tym miejscu akurat nie ma 	!	!	!	!	!	!
1D\	-(nus)	1A\	-(nus)	.	2A/	lau-	2d/	-(nus)
*	*	*	*	*	*	*	*xywh-#133:1482,2156,4159,787	*
!	!	!	!	!	!	!	!LO:LB:g=original	!
.	.	.	.	.	2d\	.	2f/	et
=60-	=60-	=60-	=60-	=60-	=60-	=60-	=60-	=60-
2r	.	1A\	et	.	2c\	-da-	2e/	lau-
2F\	et	.	.	.	2A/	-bi-	1f\	-da-
2D/	.	1A\	lau-	.	2d\	-lis	.	.
1F\	lau-	.	.	.	4c\	.	4e/	-bi-
.	.	.	.	.	4B\	.	4d/	.
=61-	=61-	=61-	=61-	=61-	=61-	=61-	=61-	=61-
*	*	*lig	*	*	*	*ij	*	*
.	.	1A\	-da-	.	2A/	et	2.c/	.
4E\	.	.	.	.	2Fny/	lau-	.	.
4D/	-da-	.	.	.	.	.	4d/	.
*	*	*custos:A	*	*	*	*	*	*
2C/	.	1c\	.	.	2G/	-da-	4e/	.
.	.	.	.	.	.	.	2f\	.
2C/	-bi-	.	.	.	2G/	-bi-	.	.
.	.	.	.	.	.	.	4e/	.
*	*	*Xlig	*	*	*	*	*	*
!	!	!LO:LB:g=original	!	!	!	!	!	!
=62-	=62-	=62-	=62-	=62-	=62-	=62-	=62-	=62-
*	*	*xywh-#500:6014,2115,4196,807	*	*	*	*	*	*
2FF/	-lis	1A\	-bi-	.	1F/	-lis	2f\	-lis
2F\	et	.	.	.	.	.	2.f\	ni-
2D/	lau-	1A\	-lis	.	2r	.	.	.
.	.	.	.	.	.	.	4d/	.
*	*	*	*	*	*custos:A	*	*	*
2C/	-da-	.	.	.	2c\	et	4e/	.
.	.	.	.	.	.	.	4c/	.
!	!	!	!	!	!LO:LB:g=original	!	!	!
=63-	=63-	=63-	=63-	=63-	=63-	=63-	=63-	=63-
*	*	*lig	*	*	*	*	*	*
*	*	*	*	*	*xywh-#319:1486,2850,4140,828	*	*	*
2F\	-bi-	1A\	ni-	.	2A/	lau-	4d/	.
.	.	.	.	.	.	.	4e/	.
*custos:E	*	*	*	*	*	*	*	*
2F\	-lis	.	.	.	2A/	-da-	2f\	.
*xywh-#681:1439,2930,4257,769	*	*	*	*	*	*	*	*
!LO:LB:g=original	!	!	!	!	!	!	!	!
2E\	ni-	1G/	.	.	2.B/	.	2g\	.
4D/	.	.	.	.	.	.	4f\	.
*	*	*	*	*	*	*	*custos:d	*
4C/	.	.	.	.	4c\	.	4e\	.
*	*	*Xlig	*	*	*	*	*	*
!	!	!	!	!	!	!	!LO:LB:g=original	!
=64-	=64-	=64-	=64-	=64-	=64-	=64-	=64-	=64-
*	*	*lig	*	*	*	*	*	*
*	*	*	*	*	*	*	*xywh-#133:1521,2912,4159,834	*
1BBny/	.	1G/	-mis	.	2d\	-bi-	1d/	.
.	.	.	.	.	2D/	-lis	.	.
*	*	*	*	*	*	*Xij	*	*
1AA/	-mis	1A\	.	.	2E/	ni-	2c,/	-mis
.	.	.	.	.	2e\	-mis	2c/	in
*	*	*Xlig	*	*	*	*	*	*
=65-	=65-	=65-	=65-	=65-	=65-	=65-	=65-	=65-
*	*	*lig	*	*	*	*	*	*
2r	.	1G/	in	.	2d\	in	2d/	ci-
2C/	in	.	.	.	2c\	ci-	2e/	-ui-
2D/	ci-	1F/	.	.	2A/	-ui-	2f\	-ta-
2F\	-ui-	.	.	.	2.d\	-ta-	2d/	-te
*	*	*Xlig	*	*	*	*	*	*
=66-	=66-	=66-	=66-	=66-	=66-	=66-	=66-	=66-
*	*	*lig	*	*	*	*	*	*
1E\	-ta-	1G/	ci-	.	.	.	2r	.
.	.	.	.	.	4c\	-te	.	.
.	.	.	.	.	2c\	.	2e/	in
2D/	-te	1A\	.	.	2d\	.	2f/	ci-
2C/	in	.	.	.	2e\	.	2e/	-ui-
*	*	*Xlig	*	*	*	*	*	*
=67-	=67-	=67-	=67-	=67-	=67-	=67-	=67-	=67-
2D/	ci-	[<1A\	-ui-	.	2f\	De-	2d/	-ta-
2AA/	-ui-	.	.	.	2e\	-i	2c/	-te
*	*	*	*	*	*custos:c	*	*	*
2D/	-ta-	1A\]	-ta-	.	2d\	no-	2d/	De-
*	*	*	*	*	*xywh-#319:5980,598,4187,857	*	*	*
!	!	!	!	!	!LO:PB:g=original	!	!	!
2AA/	-te	.	.	.	2c\	.	2e/	.
=68-	=68-	=68-	=68-	=68-	=68-	=68-	=68-	=68-
2D/	De-	1A\	-te	.	2d\	.	2f\	-i
2C/	-i	.	.	.	2e\	.	2.e/	noſ-
*	*	*	*	*	*lig	*	*	*
1D\	n(ost)-	[<1A\	De-	.	1f\	.	.	.
.	.	.	.	.	.	.	4d/	.
.	.	.	.	.	.	.	1d/	.
=69-	=69-	=69-	=69-	=69-	=69-	=69-	=69-	=69-
1AA/	-ri	1A\]	-i	.	1e\	.	.	.
.	.	.	.	.	.	.	2c/	-tri
*	*	*	*	*	*Xlig	*	*	*
*custos:F	*	*	*	*	*	*	*	*
1D\	in	[<1A\	noſ-	.	2d\	-ſtri	1d/	.
.	.	.	.	.	2A/	.	.	.
!LO:PB:g=original	!	!	!	!	!	!	!	!
=70-	=70-	=70-	=70-	=70-	=70-	=70-	=70-	=70-
*xywh-#681:5919,651,4084,839	*	*	*	*	*	*	*	*
2.F\	mon-	1A\]	-tri	.	4D/	in	2r	.
.	.	.	.	.	4E/	.	.	.
*	*	*	*	*	*	*	*custos:f	*
.	.	.	.	.	4F/	.	2d/	in
4E/	.	.	.	.	4G/	.	.	.
*	*	*custos:A	*	*	*	*	*	*
!	!	!	!	!	!	!	!LO:PB:g=original	!
2D/	.	[<1A\	in	vi-	4A/	.	2.f/	mon-
.	.	.	.	.	4B\	.	.	.
2C/	-te	.	.	.	2c\	mo(n)-	.	.
.	.	.	.	.	.	.	4e/	.
!	!	!LO:LB:g=original	!	!	!	!	!	!
=71-	=71-	=71-	=71-	=71-	=71-	=71-	=71-	=71-
*	*	*xywh-#500:6041,2826,2525,962	*	*	*	*	*	*
2.F\	ſan-	1A\]	mon-	.	2A/	-te	2d/	.
.	.	.	.	.	2.F/	ſan-	2c/	-te
4E/	.	.	.	.	.	.	.	.
*	*	*lig	*	*	*	*	*	*
2D/	-cto	1A\	-te	-ta-	.	.	2f/	ſanc-
.	.	.	.	.	4G/	.	.	.
2C/	.	.	.	.	1A\	.	2e/	.
=72-	=72-	=72-	=72-	=72-	=72-	=72-	=72-	=72-
!LO:N:acc=#	!	!	!	!	!	!	!	!
!LO:TX:t=P:problem=# below	!	!	!	!	!	!	!	!
1BBn/	.	1B\	.	.	.	.	2.d/	-cto
*	*	*	*	*	*custos:A	*	*	*
.	.	.	.	.	2G/	-cto	.	.
.	.	.	.	.	.	.	4e/	e-
*	*	*Xlig	*	*	*	*	*	*
!	!	!	!	!	!LO:LB:g=original	!	!	!
*	*	*lig	*	*	*	*	*	*
*	*	*	*	*	*xywh-#319:5968,1380,4152,781	*	*	*
2AA/	.	1c\	.	.	2.A/	e-	2f\	.
1A\	.	.	.	.	.	.	4e/	.
.	.	.	.	.	4B\	.	4d/	.
=73-	=73-	=73-	=73-	=73-	=73-	=73-	=73-	=73-
.	.	1A\	.	.	2c\	.	2e/	.
4G\	e-	.	.	.	1d\	.	2f/	.
4F\	.	.	.	.	.	.	.	.
*	*	*Xlig	*	*	*	*	*	*
1E\	.	1G/	ſan-	-tem	.	.	2g/	.
.	.	.	.	.	2c\	.	2e/	.
=74-	=74-	=74-	=74-	=74-	=74-	=74-	=74-	=74-
2D/	.	1F/	-cto	Ja-	2d\	-ius	2f\	.
4C/	.	.	.	.	4D/	.	4e/	.
4BB/	.	.	.	.	4E/	e-	4d/	.
*	*	*lig	*	*	*	*	*	*
0AA/	.	1F/	e-	.	4F/	.	2c/	.
.	.	.	.	.	4G/	.	.	.
.	.	.	.	.	1.A\	.	1d/	.
=75-	=75-	=75-	=75-	=75-	=75-	=75-	=75-	=75-
.	.	1E/	.	.	.	.	.	.
.	.	.	.	.	.	.	2c/	.
*	*	*Xlig	*	*	*	*	*	*
0.D\;l	-ius	0.D/;l	-ius	-cob	2.F/	.	0.d/;l	-ius
.	.	.	.	.	4G/	.	.	.
=76-	=76-	=76-	=76-	=76-	=76-	=76-	=76-	=76-
.	.	.	.	.	0A\l;;	-ius	.	.
==	==	==	==	==	==	==	==	==
*-	*-	*-	*-	*-	*-	*-	*-	*-
!!!system-decoration: [s1,s2,s3,s4]
!!!RDF**kern: l = terminal long
!!!RDF**kern: > = above
!!!RDF**kern: < = below
!!!ENC: Mateusz Solarz
!!!END: 2022-03-04
!!!ENC: Leszek Kubiak
!!!END: 2022-03-14
!!!ENC-iiif: Elżbieta Cabała
!!!END-iiif: 2022-09-04
!!!YEC: Copyright 2022 Narodowy Instytut Fryderyka Chopina (https://polishscores.org)
!!!YEM: License CC-BY-4.0 (https://creativecommons.org/licenses/by/4.0)
